X: 4436
T: "HAPPY THOUGHTS" SCHOTTISCHE
C: T. E. Bulch
R: Schottische
%R: shottish
B: James Kerr "Merry Melodies" v.4 p.49 #436
Z: 2016 John Chambers <jc:trillian.mit.edu>
M: C
L: 1/8
K: F
!p!(cd |\
c)z(A2 d)z(A2 | c6) (cd) |\
cz(A2 f)z(c2 | e6) !f!(GA) |\
B>AB>c B2(GA) | B>AB>c B2G>A |\
B>AB>c e>dc>B | A6 (cd) |\
cz(A2 d)z(A2 | c6) (cd) |\
cz(A2 f)z(c2 | d6) (de) |
f>dB>d f2B>d | c>AF>A c2(FA) |\
G>^FG>d c>BD>E | F2[f2A2][f2A2] |:\
!ff!(de) |\
"^>"f4 "^>"e4 | "^>"d6 (3(def) |\
"^>"g4 "^>"f4 | "^>"e6 (3(efg) |\
a4 g4 | f>gf>e d2 (3(def) |\
e>A^G>A B>AG>A | "^D.C."d6 :|
[K:Bb]\
"Trio."F2 |\
d4- d>^cd>B | F4- F>Bc>B |\
A>Bc>d e>cA>F | ("^>"G2F)z ("^>"G2F)z |\
d4- d>^cd>B | G4- G>BA>G |\
F>GA>B d>cG>A | B2d2"_D.C."B2 :|

%%sep 1 1 500
%%sep 1 1 500

